X:387
T: ZIEH SCHIMMEL ZIEH
N: E1576
O: Europa, Mitteleuropa, Deutschland
R: Staende - Lied, Fuhrmann
M: 4/4
L: 1/4
K: G
 | d2Bc | d2z
d | ddBc | d2z2 |
Bcdc | BAGG |
Bcdc | BAGG |
B2AA | G2z2

@@@ Tune index: 5071
